X:1
T:Title
%%score { ( 1 3 ) | ( 2 4 ) }
L:1/8
M:3/4
K:Db
V:1 treble nm="Grand Piano"
V:3 treble 
V:2 bass 
V:4 bass 
V:1
 z2 z[Q:1/4=94] [FA] [FA][DF] | [FA]3 [DF] [EG][CE] | [DF]3 [Fd] [Gd][GB] | [FA]3 F EF | %4
[M:3/8] [CE]3 | [GA][GB][GA] |[M:3/4] z2 z2 z A | B3 d cB | [FA][DF] [CG]2 [CE]2 |[M:3/8] D3 | %10
[M:4/4] z2 z A- A4 | de .d2 GGAG | z2 z c- c4 | z4 DDDD | z2 z A- A4 | z2 z B- B4 | edBA- A d2 d- | %17
[M:5/8] d c2 [Fd]2- | [Fd]3 z2 |] %19
V:2
 z2 z [D,D] [D,D][D,A,] | [D,D]3 [D,A,] [A,,A,][A,,A,] | [D,A,]3 [D,A,] [D,B,][D,B,] | %3
 [D,D]3 [D,A,D] [E,=G,D][E,G,D] |[M:3/8] [A,,A,]3 | [A,,A,][A,,A,][C,A,] | %6
[M:3/4] [D,A,]3 [D,A,D] [E,A,C].[F,A,D] | [G,B,D]3 [G,B,G] [G,CG][G,DG] | %8
 [D,D][D,A,] [A,,A,]2 [A,,G,]2 |[M:3/8] [D,F,]3 |[M:4/4] z4 [D,D][D,D][E,C][F,D] | %11
 z4 [G,D][G,D][F,=D][E,E] | z4 A,,C,E,A, | z2 z =F- F4[K:bass] | z4 [D,D][D,D][E,C][F,D] | %15
 z4 [G,D][G,D][F,=D][E,E] | [G,B,G][K:treble][G,B,G][G,=DG][A,_DF]- [A,DF] [A,DF]2 [A,EG]- | %17
[M:5/8] [A,EG] [A,EG]2[K:bass] [D,D]2- | [D,D]3 z2 |] %19
V:3
 x6 | x6 | x6 | x6 |[M:3/8] x3 | x3 |[M:3/4] [FA]3 F .G>_C | x6 | x6 |[M:3/8] x3 | %10
[M:4/4] AB .=G2 FF_GF | z2 z B- B4 | dc .B2 [EG][EG][EG][EG] | x8 | AB .=G2 FF_GF | dc ._c2 GGAG | %16
 x8 |[M:5/8] x5 | x5 |] %19
V:4
 x6 | x6 | x6 | x6 |[M:3/8] x3 | x3 |[M:3/4] x6 | x6 | x6 |[M:3/8] x3 |[M:4/4] x8 | x8 | x8 | %13
 BA ._F2 D,[K:bass][D,C][D,B,][D,A,] | x8 | x8 | x[K:treble] x7 |[M:5/8] x3[K:bass] x2 | x5 |] %19

